apps/documenteditor/main/resources/img/toolbar/2.5x/big/btn-notes.svg

<svg width="28" height="28" viewBox="0 0 28 28" fill="none" xmlns="http://www.w3.org/2000/svg">
<path fill-rule="evenodd" clip-rule="evenodd" d="M22.0004 8C22.3647 8 22.7062 7.90261 23.0004 7.73244V12H24.0004V6H23.0004C23.0004 6.55228 22.5527 7 22.0004 7V8ZM6.4094 15.9998L8.50039 10.4238L10.5914 15.9998H6.4094ZM6.0344 16.9998L4.46856 21.1753L3.53223 20.8242L8.03223 8.82422H8.96856L13.4686 20.8242L12.5322 21.1753L10.9664 16.9998H6.0344ZM15.0004 10H18.0004C19.1049 10 20.0004 10.8954 20.0004 12C20.0004 13.1046 19.1049 14 18.0004 14H15.0004V10ZM14.0004 14V9H18.0004C19.6572 9 21.0004 10.3431 21.0004 12C21.0004 12.9246 20.5821 13.7515 19.9244 14.3018C21.1477 14.8474 22.0004 16.0741 22.0004 17.5C22.0004 19.433 20.4334 21 18.5004 21H14.0004V15V14ZM15.0004 15V20H18.5004C19.8811 20 21.0004 18.8807 21.0004 17.5C21.0004 16.2414 20.0694 15.1985 18.8588 15.0254L18.6814 15H18.0004H15.0004Z" fill="black"/>
</svg>

<svg xmlns="http://www.w3.org/2000/svg" width="28" height="28" fill="none"><path fill="#000" d="M22 8a1.99 1.99 0 0 0 1-.268V12h1V6h-1a1 1 0 0 1-1 1v1ZM6.034 17l-1.566 4.175-.936-.35 4.5-12h.936l4.5 12-.936.35L10.966 17H6.034Zm.375-1h4.182L8.5 10.424 6.409 16ZM14 9h4a3 3 0 0 1 1.924 5.302A3.5 3.5 0 0 1 18.5 21H14V9Zm1 1v4h3a2 2 0 1 0 0-4h-3Zm0 5v5h3.5a2.5 2.5 0 0 0 .358-4.975L18.681 15H15Z"/></svg>
